X:1
T:Luci care, luci belle
T:Luci care, luci belle
T:KV 346
T:W. A. Mozart
C:W. A. Mozart
%%score [ 1 2 3 ] { ( 4 6 ) | 5 }
L:1/8
Q:1/4=100
M:4/4
K:F
V:1 treble nm="Soprano"
V:2 treble nm="Alto"
V:3 bass nm="Bass"
V:4 treble nm="Piano"
V:6 treble 
V:5 bass 
V:1
"^Allegretto" c3/2 B/ | (BA) A2 (fe) (dc) | (c=B) _B2 z2 B3/2 A/ | (AG) G d (dc) (cB) | %4
w: Lu- ci|ca- * re, lu- * ci _|bel- * le, ca- ri|lu- * mi a ma- * te _|
 B2 A2 A3{/c} B | A2 G2 B3{/d} c | B2 A2 (AB) (cd) | c2 A c (cB) (AG) | G4 F2 :: c3/2 B/ | %10
w: stel- le, da- te|cal- ma a que- sto|co- re, da- * te _|cal- ma a que- * sto _|co- re.|Se per|
 (BA) (Ad) (dcB) A | (Ac) B2 z2 B3/2 A/ | (AG) (Gc) (cB) (AG) | (GB) A2 A3{/c} B | %14
w: voi _ so- * spi- * * ro e|mo- * ro i- dol|mio, _ mio _ bel _ te- *|so- * ro, for- za e|
 A2 G G B3{/d} c | B2 A2 (df) e d | (cf) (dB) (Ac) (BG) | G4 F2 :| %18
w: so- lo del Dio d'a-|mo- re, for- * za e|sol _ del _ Dio _ d'a- *|mo- re.|
V:2
 A3/2 G/ | (GF) F2 (dc) (BA) | (A^G) =G2 z2 G3/2 F/ | (FE) E B (BA) (AG) | G2 F2 F3{/A} G | %5
w: Lu- ci|ca- * re, lu- * ci _|bel- * le, ca- ri|lu- * mi a ma- * te _|stel- le, da- te|
 F2 E2 G3{/B} A | G2 F2 F3 F | F2 F A (AG) (FE) | E4 F2 :: A3/2 G/ | (G^F) (FD) D3 F | %11
w: cal- ma a que- sto|co- re, da- *|cal- ma a que- * sto _|co- re.|Se per|voi _ so- * spi- ro e|
 (^FA) G2 z2 G3/2 =F/ | (FE) (EC) C3 E | (EG) F2 F3{/A} G | F2 E E G3{/B} A | G2 F2 F2 F2 | %16
w: mo- * ro i- dol|mio, _ mio _ bel te-|so- * ro, for- za e|so- lo del Dio d'a-|mo- re, for- za e|
 A2 (BG) (FA) (GE) | E4 F2 :| %18
w: sol del _ Dio _ d'a- *|mo- re.|
V:3
 F,3/2 F,/ | F,2 F,2 F,2 F,2 | C2 C2 z2 C,3/2 C,/ | C,2 C,2 E,2 E,2 | F,2 F,2 F,E, D,B,, | %5
w: Lu- ci|ca- re, lu- ci|bel- le, ca- ri|lu- mi a ma- te|stel- le, da- * te _|
 C,2 C,2 C,D, E,C, | F,2 F,2 (F,G,) (A,B,) | A,2 F,2 C2 C,2 | C,4 F,2 :: F,3/2 ^C,/ | %10
w: cal- ma a que- * sto _|co- re, da- * te _|cal- ma a que- sto|co- re.|Se per|
 D,3 B, (B,A,G,) D, | D,2 G,2 z2 E,3/2 =F,/ | C,3 A, (A,G,) (F,C,) | C,2 F,2 (F,E,D,) B,, | %14
w: voi so- spi- * * ro e|mo- ro i- dol|mio, mio bel _ te- *|so- ro, for- * * za e|
 C,2 C,2 (C,D,) (E,C,) | F,2 F,2 (B,D) C B, | F,2 B,2 C2 C,2 | C,4 F,2 :| %18
w: sol del Dio _ d'a- *|mo- re, for- * za e|sol del Dio d'a-|mo- re.|
V:4
 [Ac]>[GB] | [GB][FA] [FA]2 [df][ce][Bd][Ac] | [Ac][^G=B] [=G_B]2 z2 [GB]>[FA] | %3
 [FA][EG][EG][Bd] [Bd][Ac][Ac][GB] | [GB]2 [FA]2 [FA]3{/[Ac]} [GB] | %5
 [FA]2 [EG]2 [GB]3{/[Bd]} [Ac] | [GB]2 [FA]2 ABcd | [Fc]2 [FA][Ac] [Ac][GB][FA][EG] | G4 F2 :: %9
 [Ac]>[GB] | [GB][^FA][FA][Dd] dcBA | [^FA][Ac] [GB]2 z2 [GB]>[=FA] | [FA][EG][EG][Cc] cBAG | %13
 [EG][GB] [FA]2 [FA]3{/[Ac]} [GB] | [FA]2 [EG]2 [GB]3{/[Bd]} [Ac] | [GB]2 [FA]2 dfed | %16
 cf[Bd][GB] [FA][Ac][GB][EG] | G4 F2 :| %18
V:5
 F,2 | F,,2 F,2 F,2 F,2 | z C,E,G, C2 C,2 | C,2 C,2 E,2 E,2 | F,2 F,2 F,E,D,B,, | %5
 C,2 C,2 C,D,E,C, | F,2 F,,2 F,G,A,B, | A,2 F,2 C2 C,2 | C,4 F,,2 :: F,>^C, | D,3 B, B,A,G,D, | %11
 D,2 G,2 G,,2 E,=F, | C,3 A, A,G,F,C, | C,2 F,2 F,E,D,B,, | C,2 C,2 C,D,E,C, | F,2 F,2 B,DCB, | %16
 F,2 B,2 C2 C,2 | C,4 F,,2 :| %18
V:6
 x2 | x8 | x8 | x8 | x8 | x8 | x4 F4 | x8 | ECB,C A,2 :: x2 | x4 D3 ^F | x8 | x4 C3 E | x8 | x8 | %15
 x4 F4 | A2 x6 | ECB,C A,2 :| %18

